X:1
T:Scherzo in E minor
T:Scherzo in E minor
T:Felix Mendelssohn Op. 16 No.2
T:by Mutopia-2009/06/02-1653
T:by Mutopia-2009/06/02-1653
T:by Mutopia-2009/06/02-1653
T:by Mutopia-2009/06/02-1653
T:by Mutopia-2009/06/02-1653
C:Felix Mendelssohn Op. 16 No.2
Z:by Mutopia-2009/06/02-1653
%%score { ( 1 3 ) | ( 2 4 ) }
L:1/8
Q:1/4=60
M:4/4
K:G
V:1 treble nm="Piano" snm="Pno."
V:3 treble 
V:2 bass 
V:4 bass 
V:1
"^Presto"!p! b/b/ | b3 b/b/ b3 b/b/ | b2 b2 !>!b3 [gb]/[gb]/ | [gb]3 [gb]/[gb]/ [gb]3 [gb]/[gb]/ | %4
 [gb]2 [gb]2 !>![gb]3!pp! .e | .^d.e.f.d{f} .e.d.e.g | .f.g.a.f{a} .g.f.g.b | %7
{b} .e'.d'.c'.b .c'.b.a.g | .f{a}.g.f.g .f.f'.b!p! z | z .[Bb].[Bb].[Bb] .[Bb].[Bb].[Bb].[Bb] | %10
 .[Bb].[Bb].[Bb].[Bb] .[Bb].[Bb].[Bb].[Bb] | .[Bb].[Bb].[Bb].[Bb] .[Bb].e.c.[ea] | %12
 .B.[eg].B.[^df] .e2 !>!b2- | b6 !>!b2- | b4 .b.[eg].[gb].[eg] | %15
!pp! .[^c'e'].[eg].[c'e'].[eg] .[c'e'].[eg].[c'e'].[eg] | .[gb].[fa].[eg].[^df] .e2 z!f! e/e/ | %17
 e3 e/e/ e3!p! e/e/ | e2 e2 !>!e3!f! [ef]/[ef]/ | [ef]3 [ef]/[ef]/ [ef]3!p! [ef]/[ef]/ | %20
 [ef]2 [ef]2 !>![ef]3 [ef] |!pp! [db]"_staccato"f{a}gf [db]f{a}gf | %22
 [e^c']f{a}[eg]f{a} [eg]f{a}[eg]f | [db]f{a}gf [db]f{a}gf | [e^c']f{a}[eg]f{a} [eg]f{a}[eg]f | %25
 [df]d'd'd' d'd'd'd' | d'd'd'd' d'd'd'd' | d'd'd'd' d'd'd'd' | .d'.d.e.^c' .b.d.^c._b | %29
!p! .[d'f'].[d'f'].[^c'e'].[c'e'] .[bd'].[bd'].[ac'].[ac'] | %30
 .[gb].[gb].[fa].[fa] .[eg].[eg]!f!.[df].[^ce] | [Bd][Bd][^ce][df] [ce][ce][Bd][_Bc] | %32
 [df][df][^ce][ce] [Bd][Bd][Ac][Ac] | [GB][GB][FA][FA] [EG][EG]!f![DF][^CE] | %34
 [B,D][B,D][^CE][DF] [CE][CE][B,D][_B,C] | B,B, z [^E,^G,] z F,2 [^A,E] | %36
 z [B,D] z [^E^G] z F z [^A=e] | z [Bd]2 [^e^g] z f z [=e=g] | %38
!pp! z !arpeggio![dfbd'] z [eg] z !arpeggio![dfbd'] z [eg] | %39
 z !arpeggio![dfbd']2 [eg] z [eg]!f! z2 | z8 | z!p! .[df].[bd'].[df] .[bd'].[df].[bd']!f!.[df] | %42
 [bd']2 z2 z4 | z!p! .[d=f].[bd'].[df] .[bd'].[df].[bd'].[df] | [bd']2!f! z2 z .[e^g].[bd'].[eg] | %45
 [bd']2 z2 z .[e^g].[bd']!ff! [ce]/[ce]/ | [ce]3 [ce]/[ce]/ [ce]A[Ac][ce] | %47
 [ea][ce][ea][ce] [ea]2 z (e'/c'/ | e'/c'/a/e/ a/c'/e'/c'/) (e'/c'/a/e/ a/c'/e'/c'/) | %49
 (e'/c'/a/e/ e'/c'/a/e/ e'/c'/a/e/ a/c'/e'/c'/) | %50
 (e'/c'/a/e/ a/c'/e'/c'/) (e'/c'/a/e/ a/c'/e'/c'/) | %51
 (e'/c'/a/e/ e'/c'/a/e/ e'/c'/a/e/ a/c'/e'/c'/) | e'/^c'/_b/e/ b/c'/e'/c'/ e'/c'/b/e/ b/c'/e'/c'/ | %53
 e'/^c'/_b/e/ e'/c'/b/e/ e'/c'/b/e/ a!ff!!8va(!_b'/g'/ | %54
 b'/g'/e'/b/ =a'/f'/^d'/=c'/ g'/e'/b/g/ f'/d'/c'/a/!8va)! | %55
 e'/b/g/e/ c'/g/e/c/ b/g/e/B/ ^a/g/e/^A/ | b/f/^d/B/ =a/f/d/c/ g/e/B/G/ f/d/c/A/ | %57
 e/B/G/E/ ^c/^A/G/E/ A/G/E/^C/ G/E/C/^A,/ |!ff! B,[B,B][^D^d][^^C^^c] [_E_e][B,B][Ff][^E^e] | %59
 [Ff][^D^d][Aa][^G^g] [Aa][Ff][=c=c'][Bb] | [cc'][Bb][cc'][Bb] [cc'][Bb][Aa][Gg] | %61
 [Ff][Ee][^D^d][Cc] [B,B][A,A][G,G][F,F] |!ff! E3 E/E/ E3 E/E/ | E2 E2 E3!pp! e | %64
 .^d.e.f.d{f} .e.d.e!ff! C/C/ | C2 C2 C3!pp! .c | .B.c.d.B{d} .c.B.c.e | %67
 .d.e.=f.d{f} .e.^d.e [Ace^f]/[Acef]/ | [Acef]3 [Acef]/[Acef]/ [Acef]3 [Acef]/[Acef]/ | %69
"_dim." (.[Acef]2 .[Acef]2 .[Acef]2 .[Acef]2) |!p!{e} (e'c').b.a (g2 f).f | %71
{e} (e'c').b.a (g2 f).f | (e'^c').b.^a (c'a).f.g | (gf).^d.e (gf).d.e | %74
!p! .[Ge].B{=d}.c.B .[Ge].B{d}.c.B | .[Af].B{d}.[Ac].B{d} .[Ac].B{d}.[Ac].B | %76
 [Ge]B{d}cB [Ge]B{d}cB | [Af]B{d}[Ac]B{d} [Ac]B{d}[Ac]B | [Ge]2 z [GB] .[eg].[d=f].[ce].[B^d] | %79
 ([ce]2 G).G [eg][=d=f][ce][B^d] | ([ce]2 G).G .[eg].[d=f].[ce].[B^d] | .[ce].G.A.^f .e.G.F.^d | %82
!p! .[gb].[gb].[fa].[fa] .[eg].[eg].[=df].[df] | .[ce].[ce].[Bd].[Bd] .[Ac].[Ac]!f!.[GB].[FA] | %84
 [EG][EG][FA][GB] [FA][FA][EG][^DF] |"_dim." [GB][GB][FA][FA] [EG][EG][DF][DF] | %86
[K:bass]!pp! [CE][CE][B,D][B,D] [A,C][A,C][G,B,][F,A,] | %87
 [E,G,][E,G,][F,A,][G,B,] [F,A,][F,A,][E,G,][^D,F,] |!p! E,E, z [D,=F,]2 [C,E,]2 [^F,C] | %89
 z [G,B,] z[K:treble] [D=F] z [CE] z [^Fc] | z [GB] z [d=f] z [ce] z [^fc'] | %91
!pp! [gb] z [ge'] z [ef] z [^dfb] z |!p! e'e' z [d'=f']2 [c'e'] z [^fc'] | %93
 z [gb] z [d=f] z c z [Fc] | z [GB] z [D=F] z [CE] z [^F,C] | [G,B,] z [G,E] z [E,F,] z [F,B,] z | %96
 z2 z!f! E/E/ G2 B2 | !>!e3 B/B/ e2 g2 | !>!b3 e/e/ g2 b2 | %99
[K:E]!8va(!{be'g'} b'/a'/g'/a'/ b'/a'/g'/f'/ e'/f'/g'/f'/ e'/b/g/b/!8va)! | %100
 (e'/b/g/b/ e'/b/g/b/ e/f/g/f/ e/B/G/B/) | (e/B/G/B/ e/B/G/B/ E/F/G/F/ E/B,/G,/B,/) | %102
 EB,/E/ G/B/e/g/ z [Bf][eg][Bf] | [eg]B/e/!8va(! g/b/e'/g'/ z [bf'][e'g'][bf'] | b'8- | %105
 ([e'g'b'][bf'])([e'g'][bf']) ([e'g'][bf'])([e'g'][bf']) | [e'g']2 z2!pp! [be'b']2 z2 | %107
 [be'b']2!8va)! z2 z4 | !fermata!z8 |] %109
V:2
 z | z8 | z8 | z8 | z4 z2 z[K:treble] .[GB] | .[FB].[GB].[AB].[FB] .[GB].[FB].[GB].[EB] | %6
 .[^DB].[EB].[FB].[DB] .[EB].[DB].[EB] z | z2 z .B .e.d.c.B | %8
 .[^Ae].[Ae].[Ae].[Ae] .[B^d]2 z[K:bass] .B,,, | .G,,,.B,,,.E,,.F,, .G,,.F,,.E,,.F,, | %10
 .G,,.B,,.E,.F, .G,.F,.E,.F, | .G,.B,.E.F[K:treble] .G.E.A.F | .B.^A.B.[B,=A] .[EG]2 z .[GB] | %13
 .[FB].[GB].[AB].[FB] .[GB]3 .[EB] | .[^DB].[EB].[FB].[DB] .[EB].[GB].[EG].[GB] | %15
 .[^A,^C].[EG].[A,C].[EG] .[A,C].[EG].[A,C].[EG] | .B,.B,.B,.[B,=A] .[EG]2 z2 | z4 z2 z .[Ac] | %18
 .[EB].[Ac].[Bd].[EB] .[Ac].[^GB].[Ac] z | z4 z2 z[K:bass] F,, | .^A,,.^C,.F,.^A, .^C.F,.F.F, | %21
[K:treble] B,[FB]D[FB] B,[FB]D[FB] | F,^A[FB]A [FB]A[FB]A | B,[FB]D[FB] B,[FB]D[FB] | %24
 F,^A[FB]A [FB]A[FB]A | B2 z .D .[Bd].[=Ac].[GB].[F^A] | ([GB]2 D).D .[Bd].[=Ac].[GB].[F^A] | %27
 ([GB]2 D)D [Bd][=Ac][GB][F^A] | [GB] z [EG] z F z[K:bass] [F,E] z | [B,D]2 z2 z4 | %30
 [E,B,^C]2 z2 z2 B,2 | F8- | F2 z2 z4 | [E,,B,,^C,]2 z2 z2 B,,2 | !>!F,8- | %35
 F, z [B,,D,]!p! z [^A,,^C,] z G, z | F, z [B,D] z [^A,^C] z[K:treble] =G z | %37
 F z [Bd] z [^A^c] z [Ac] z | B, z [^A^c] z B, z [Ac] z | B, z [^A^c] z [Ac] z [Ac] B/B/ | %40
 B3 B/B/ B3 B/B/ | B2 B2 !>!B3 [!courtesy!=AB]/[AB]/ | [AB]3 [AB]/[AB]/ [AB]3 [AB]/[AB]/ | %43
 [AB]2 [AB]2 !>![AB]3 [E^GB]/[EGB]/ | [E^GB]2 [EGB]2 !>![EGB]3 [EGB]/[EGB]/ | %45
 [E^GB]2 [EGB]2 !>![EGB]3 A/A/ | A3 A/A/ .A.C.E.A | .c.A.c.A c2 z2 | %48
[K:bass]"^con fuoco" [A,,,A,,]2 [E,F,A,C]2 [A,,,A,,]2 [E,F,A,C]2 | %49
 [A,,,A,,]2 [E,F,A,C]2 [E,F,A,C]2 z2 | [A,,,A,,]2 [E,F,A,C]2 [A,,,A,,]2 [E,F,A,C]2 | %51
 [A,,,A,,]2 [E,F,A,C]2 [E,F,A,C]2 z2 | [F,,,F,,]2 [^C,F,^A,]2 [F,,,F,,]2 [C,F,A,]2 | %53
 [F,,,F,,]2 [^C,F,^A,]2 [C,F,A,]2 z [B,,,B,,]/[B,,,B,,]/ | %54
 [B,,,B,,]3 [B,,,B,,]/[B,,,B,,]/ [B,,,B,,]3 [B,,,B,,]/[B,,,B,,]/ | %55
 [B,,,B,,]2 [B,,,B,,]2 !>![B,,,B,,]3 [B,,,B,,]/[B,,,B,,]/ | %56
 [B,,,B,,]3 [B,,,B,,]/[B,,,B,,]/ [B,,,B,,]3 [B,,,B,,]/[B,,,B,,]/ | %57
 [B,,,B,,]2 [B,,,B,,]2 !>![B,,,B,,]4 | %58
 z [B,,,B,,][^D,,^D,][^^C,,^^C,] [D,,D,][B,,,B,,][F,,F,][^E,,^E,] | %59
 [F,,F,][^D,,^D,][A,,A,][^G,,^G,] [A,,A,][F,,F,][=C,=C][B,,B,] | %60
 [C,C][B,,B,][C,C][B,,B,] [C,C][B,,B,][A,,A,][G,,G,] | %61
 [F,,F,][E,,E,][^D,,^D,][C,,C,] [B,,,B,,][A,,,A,,][G,,,G,,][F,,,F,,] | %62
 [E,,E,]3 [E,,E,]/[E,,E,]/ [E,,E,]3 [E,,E,]/[E,,E,]/ | [E,,E,]2 [E,,E,]2 [E,,E,]3[K:treble] .[GB] | %64
 .[FB].[GB].[AB].[FB] .[GB].[FB] .[GB][K:bass] [C,,C,]/[C,,C,]/ | %65
 [C,,C,]2 [C,,C,]-[C,,C,] [C,,C,]3[K:treble] [EG] | .[DG].[EG].[=FG].[DG] .[EG].[DG].[EG].[CG] | %67
 .[B,G].[CG].[DG].[B,G] .[CG].[B,G].[CG]!ff! z | z8 | z8 | %70
[K:bass] A,,2 z z [F,A,CE][F,A,CE][F,A,CE] z | A,,2 z2 [F,A,CE][F,A,CE][F,A,CE] z | %72
 F,,2 z2 [F,^A,^CE][F,A,CE][F,A,CE] z | [F,^A,^CE][F,A,CE][F,A,CE] z [F,A,CE][F,A,CE][F,A,CE] z | %74
 .B,,.[B,E].G,.[B,E] .B,,.[B,E].G,.[B,E] | .B,,.^D.[B,E].D .[B,E].D.[B,E].D | %76
 E,[B,E]G,[B,E] E,[B,E]G,[B,E] | B,,^D[B,E]D [B,E]D[B,E]D | G,G,G,G, G,G,G,G, | G,G,G,G, G,G,G,G, | %80
 G,G,G,G, G,G,G,G, | [C,G,] z [A,C] z B, z [A,B,] z | [G,B,]2 z2 z4 | [A,,C,E,F,]2 z2 z2 E,2 | %84
 !>!B,8- | B,2 z2 z4 | [E,,F,,]8 | B,,8 | E,, z ^G,, z A,, z ^D, z | E, z ^G, z A, z ^D z | %90
[K:treble] E z ^G z A z ^d z | e z [ce] z A z B z | e z ^g z a z ^d z | e z ^G z A z ^D z | %94
 E z[K:bass] ^G, z A, z ^D, z | E, z [C,E,] z A,, z [B,,^D,] z | [E,,E,]2 z2 z4 | z8 | z8 | %99
[K:E] [E,,E,]2 z z/[K:treble] [B,GBd]/ !>![B,GBd]4 | %100
[K:bass] [E,,E,]2 z3/2[K:treble] [B,B]/ !>![B,B]4 |[K:bass] [E,,E,]2 z3/2 [B,,B,]/ !>![B,,B,]4 | %102
 E,,2 z2 z4 | z4 z2[K:treble] B z | [Ee] z [B,B] z [E,E] z [G,G] z | %105
[K:bass] [B,,B,] z [E,E] z [G,,G,] z [B,,B,] z | .[E,,E,]2 z2[K:treble] [eg]2 z2 | %107
 [eg]2 z2[K:bass] .[E,,,E,,]2 z2 | [E,,,E,,]2 z2 !fermata!z4 |] %109
V:3
 x | x8 | x8 | x8 | x8 | x8 | x8 | x8 | x8 | x8 | x8 | x8 | x6 z .e | .^d.e.=f.d .e2 z .g | %14
 .f.g.a.f x4 | x8 | x8 | x8 | x8 | x8 | x8 | x8 | x8 | x8 | x8 | x8 | x8 | x8 | x8 | x8 | x8 | x8 | %32
 x8 | x8 | x8 | x8 | x8 | x8 | x8 | x8 | x8 | x8 | x8 | x8 | x8 | x8 | x8 | x8 | x8 | x8 | x8 | %51
 x8 | x8 | x7!8va(! x | x8!8va)! | x8 | x8 | x8 | x8 | x8 | x8 | x8 | x8 | x8 | x8 | x8 | x8 | x8 | %68
 x8 | x8 | x8 | x8 | x8 | x8 | x8 | x8 | x8 | x8 | x8 | x8 | x8 | x8 | x8 | x8 | x8 | x8 | %86
[K:bass] x8 | x8 | x8 | x3[K:treble] x5 | x8 | x8 | x8 | x8 | x8 | x8 | x8 | x8 | x8 | %99
[K:E]!8va(! x8!8va)! | x8 | x8 | x4 !>!b4- | b x!8va(! x2 !>!b'4- | %104
 [e'g'][bf'][e'g'][bf'] [e'g'][bf'][e'g'][bf'] | x8 | x8 | x2!8va)! x6 | x8 |] %109
V:4
 x | x8 | x8 | x8 | x7[K:treble] x | x8 | x8 | x8 | x7[K:bass] x | x8 | x8 | x4[K:treble] x4 | x8 | %13
 x8 | x8 | x8 | x8 | x8 | x8 | x7[K:bass] x | x8 |[K:treble] x8 | x8 | x8 | x8 | x8 | x8 | x8 | %28
 x6[K:bass] x2 | x8 | x8 | F,2 z2 z4 | [B,D]2 x6 | x8 | F,,2 z2 z4 | [B,,D,] x7 | x6[K:treble] x2 | %37
 x8 | x8 | x8 | x8 | x8 | x8 | x8 | x8 | x8 | x8 | x8 |[K:bass] x8 | x8 | x8 | x8 | x8 | x8 | x8 | %55
 x8 | x8 | x8 | x8 | x8 | x8 | x8 | x8 | x7[K:treble] x | x7[K:bass] x | x7[K:treble] x | x8 | x8 | %68
 x8 | x8 |[K:bass] x8 | x8 | x8 | x8 | x8 | x8 | x8 | x8 | x8 | C,2 z2 G,,2 z2 | C,2 z2 G,,2 z2 | %81
 x8 | x8 | x8 | B,,2 z2 z4 | [E,G,]2 x6 | A,,,2 z2 z4 | B,,,2 z2 z4 | x8 | x8 |[K:treble] x8 | x8 | %92
 x8 | x8 | x2[K:bass] x6 | x8 | x8 | x8 | x8 |[K:E] x7/2[K:treble] x9/2 | %100
[K:bass] x7/2[K:treble] x9/2 |[K:bass] x8 | x8 | x6[K:treble] x2 | x8 |[K:bass] x8 | %106
 x4[K:treble] x4 | x4[K:bass] x4 | x8 |] %109

